icons/open_color_mb.svg

<svg width="30" height="30" fill="none" xmlns="http://www.w3.org/2000/svg"><path d="M15.33 9.13h-.45v6.19H8.47v.44h6.41v6.41h.45v-6.41h6.19v-.44h-6.19V9.13Z" fill="#6C0287" fill-rule="evenodd"/><circle cx="15" cy="15" r="14.5" stroke="#6C0287"/></svg>

<svg width="30.000000" height="30.000000" viewBox="0 0 30 30" fill="none" xmlns="http://www.w3.org/2000/svg" xmlns:xlink="http://www.w3.org/1999/xlink">
	<path id="Vector" d="M15.33 9.13L14.88 9.13L14.88 15.32L8.47 15.32L8.47 15.76L14.88 15.76L14.88 22.17L15.33 22.17L15.33 15.76L21.52 15.76L21.52 15.32L15.33 15.32L15.33 9.13Z" fill="#6C0287" fill-opacity="1.000000" fill-rule="evenodd"/>
	<circle id="Ellipse 3" cx="15.000000" cy="15.000000" r="14.500000" stroke="#6C0287" stroke-opacity="1.000000" stroke-width="1.000000"/>
</svg>
